X:2
M:4/4
L:1/1
K:Eb
V:1
[Beg]|[cea]|[Beg]||[K:G][dgb]|[dfa]|[Bdg]||
V:2
E,|E,|E,||[K:G]G,|A,|B,||
w:I N6/4 I  I P6/4 I6
%
W:Realize the progressions in simple keyboard style.
W:For the passing 6/4 chord, use a voice exchange in the melody (top voice).